check-ins/calendar.svg

<svg xmlns="http://www.w3.org/2000/svg" viewBox="0 0 16 16"><title>calendar</title><path d="M14.8 1.6h-2V0h-1.6v1.6H4.8V0H3.2v1.6h-2A1.2 1.2 0 0 0 0 2.8v12A1.2 1.2 0 0 0 1.2 16h13.6a1.2 1.2 0 0 0 1.2-1.2v-12a1.2 1.2 0 0 0-1.2-1.2zm-.4 12.8H1.6V8h12.8zm0-8H1.6V3.2h1.6v1.6h1.6V3.2h6.4v1.6h1.6V3.2h1.6z" data-name="Layer 1"/></svg>

<svg xmlns="http://www.w3.org/2000/svg" viewBox="0 0 16 16"><title>calendar</title><g id="Layer_1" data-name="Layer 1"><path d="M14.8,1.6h-2V0H11.2V1.6H4.8V0H3.2V1.6h-2A1.2,1.2,0,0,0,0,2.8v12A1.2,1.2,0,0,0,1.2,16H14.8A1.2,1.2,0,0,0,16,14.8V2.8A1.2,1.2,0,0,0,14.8,1.6Zm-.4,12.8H1.6V8H14.4Zm0-8H1.6V3.2H3.2V4.8H4.8V3.2h6.4V4.8h1.6V3.2h1.6Z"/></g></svg>
